icons/job/tank/DRK.svg

<svg viewBox="0 0 12.7 12.7" xmlns="http://www.w3.org/2000/svg">
  <g>
    <path d="m 6.3500008,0.5597717 c -0.1375617,0 -0.1501597,0.6331314 -0.2934277,1.5968587 C 5.9293011,3.0127466 5.8257944,3.1384915 5.5040839,2.9766788 5.111403,2.7791704 4.6747902,2.5669162 4.0461786,2.3439957 3.1980695,2.0432351 3.0208953,2.1150157 3.5790586,2.6873146 4.103143,3.2246739 4.4800111,3.4581018 4.7989668,3.7024891 5.0126539,3.8662178 4.9207225,3.9974761 4.7054694,4.1326548 4.3499941,4.3558895 3.435097,4.8543097 2.4386037,5.6034933 1.2553317,6.4931019 2.5754427,5.9645635 4.2963695,5.2490879 5.4834393,4.755563 5.9356809,4.3242339 5.6541231,5.3884108 5.5363299,5.8336277 5.2173666,6.2911806 4.0517218,6.6848185 3.851823,6.7523345 3.7673091,6.8240105 4.0894154,7.0854198 4.3910035,7.3301752 5.0965088,8.1875199 5.3418463,8.769863 c 0.1609223,0.3924124 0.3063729,0.7089132 0.5935098,1.95459 0.2326513,1.009275 0.2731386,1.415776 0.4146432,1.415776 0.1415032,0 0.1819926,-0.406501 0.4146439,-1.415776 C 7.0517802,9.4787762 7.1972285,9.1622754 7.358153,8.769863 7.6034891,8.1875199 8.3089944,7.3301752 8.610584,7.0854198 8.932691,6.8240105 8.8481778,6.7523279 8.6482775,6.6848185 7.4826327,6.2911806 7.1636702,5.8336277 7.045877,5.3884108 6.7643192,4.3242339 7.2165616,4.755563 8.4036314,5.2490879 10.124557,5.9645635 11.444669,6.4931019 10.261396,5.6034933 9.2649024,4.8543097 8.350006,4.3558895 7.9945315,4.1326548 7.7792776,3.9974761 7.6873461,3.8662178 7.9010333,3.7024891 8.2199883,3.4581018 8.5968564,3.2246732 9.1209422,2.6873146 9.6791058,2.1150157 9.5019314,2.0432351 8.6538215,2.3439957 8.0252107,2.5669162 7.5885972,2.7791704 7.1959162,2.9766788 6.8742057,3.1384915 6.7706998,3.0127488 6.643427,2.1566304 6.5001574,1.1929031 6.4875603,0.5597717 6.3499978,0.5597717 Z m 0,5.5847539 c 0.081614,0 0.266167,0.2001847 0.4305346,0.3540373 0.5954221,0.5573336 0.582584,0.4230137 0.096454,1.1060863 C 6.6542187,7.9176666 6.5442358,8.1490064 6.3500006,8.1490064 6.1557647,8.1490064 6.0457818,7.9176666 5.8230117,7.6046492 5.3368814,6.9215766 5.3240433,7.0558965 5.9194663,6.4985629 6.0838339,6.3447103 6.2683874,6.1445256 6.3500008,6.1445256 Z" />
  </g>
</svg>

<svg viewBox="0 0 12.7 12.7" xmlns="http://www.w3.org/2000/svg"><path d="M6.35.56c-.138 0-.15.633-.293 1.597-.128.856-.231.981-.553.82a11.8 11.8 0 0 0-1.458-.633c-.848-.3-1.025-.229-.467.343.524.538.901.771 1.22 1.015.214.164.122.295-.094.43-.355.224-1.27.722-2.266 1.471-1.184.89.136.362 1.857-.354 1.187-.493 1.64-.925 1.358.14-.118.445-.437.902-1.602 1.296-.2.067-.285.139.037.4.302.245 1.008 1.103 1.253 1.685.16.392.306.709.593 1.954.233 1.01.273 1.416.415 1.416.142 0 .182-.406.415-1.416.287-1.245.432-1.562.593-1.954.245-.582.951-1.44 1.253-1.685.322-.261.237-.333.037-.4-1.165-.394-1.484-.851-1.602-1.297-.282-1.064.17-.632 1.358-.139 1.72.716 3.04 1.244 1.857.354-.996-.749-1.911-1.247-2.266-1.47-.216-.136-.308-.267-.094-.43.319-.245.696-.478 1.22-1.016.558-.572.38-.644-.467-.343a11.8 11.8 0 0 0-1.458.633c-.322.161-.425.036-.553-.82C6.5 1.193 6.488.56 6.35.56Zm0 5.585c.082 0 .266.2.43.354.596.557.583.423.097 1.106-.223.313-.333.544-.527.544s-.304-.231-.527-.544c-.486-.683-.499-.55.096-1.106.165-.154.35-.354.431-.354Z"/></svg>
